X:19002
T:Saint Anne's Reel
R:Reel
C:Trad.
O:Canada, then Shetland
Z:Paul Hardy's Session Tunebook 2022 (see www.paulhardy.net). Creative Commons cc by-nc-sa licenced.
M:4/4
L:1/8
Q:1/4=120
K:D
de|"D"fedc "A"edcB|"D"A2FA DAFA|"Em"B2GB EBGB|"D"A2FA DAFA|
"D"fedc "A"edcB|"D"A2FA DAFA|"Em"B2ed "A7"cABc|"G"dedc "D"d2:|
|:de|"D"f2fe "D7"fdef|"G"gagf g2gf|"A7"edcB ABce|"E7"baa^g "A7"a2a=g|
"D"f2fe fdef|"G"gagf g2gf|"A7"edcB ABcd|eddc "D"d2:|

